outputs/icons/navigation/double_arrow_left_round.svg

<svg xmlns="http://www.w3.org/2000/svg" width="1200" height="1200" fill="none"><path fill="#000" d="m391.24 600.005 193.75 195c9.165 9.165 13.96 20.625 14.375 34.375q.624 20.625-14.375 35.625c-9.165 9.165-20.835 13.75-35 13.75s-25.835-4.585-35-13.75l-230-230q-7.5-7.499-10.625-16.25-3.125-8.753-3.125-18.75t3.125-18.75q3.125-8.751 10.625-16.25l230-230q13.749-13.75 34.375-14.375 20.625-.624 35.625 14.375 13.749 13.75 13.75 35-.001 21.25-13.75 35.001zm330 0 193.75 195c9.165 9.165 13.96 20.625 14.375 34.375q.624 20.625-14.375 35.625c-9.165 9.165-20.835 13.75-35 13.75s-25.835-4.585-35-13.75l-230-230q-7.499-7.499-10.625-16.25-3.126-8.753-3.125-18.75-.001-9.998 3.125-18.75 3.126-8.751 10.625-16.25l230-230q13.749-13.75 34.375-14.375 20.625-.624 35.625 14.375 13.749 13.75 13.75 35-.001 21.25-13.75 35.001z"/></svg>

<svg xmlns="http://www.w3.org/2000/svg" width="1200" height="1200" fill="none"><path fill="#000" d="M391.252 600 585 795q13.754 13.749 14.375 34.375C599.795 843.125 595 855 585 865q-13.746 13.749-35 13.75-21.246-.001-35-13.75L285.002 635q-7.5-7.499-10.625-16.25-3.125-8.753-3.125-18.75t3.125-18.75q3.126-8.751 10.625-16.25L515 335c9.17-9.167 20.625-13.959 34.375-14.375Q570 319.999 585 335c9.17 9.166 13.75 20.832 13.75 35 0 14.166-4.58 25.832-13.75 35zm329.998 0L915 795q13.754 13.749 14.375 34.375C929.795 843.125 925 855 915 865q-13.746 13.749-35 13.75-21.246-.001-35-13.75L615 635q-7.499-7.499-10.625-16.25c-2.08-5.835-3.125-12.085-3.125-18.75s1.045-12.915 3.125-18.75Q607.501 572.499 615 565l230-230c9.17-9.167 20.625-13.959 34.375-14.375Q900 319.999 915 335c9.17 9.166 13.75 20.832 13.75 35 0 14.166-4.58 25.832-13.75 35z"/></svg>
